X:1
T:Title
%%score ( 1 2 ) { 3 | 4 }
L:1/8
Q:1/4=85
M:4/4
K:D
V:1 treble nm="Grand Piano, Soprano"
V:2 treble 
V:3 treble nm="Choir Pad, Following the Master"
V:4 bass 
V:1
 [FA][FA] [GB]>[FA] [Fd]2 [FA]2 | [DF]>[DF] [DF][CE] [B,D][CE] [DF]2 | %2
w: By~H.~A.~R.~Horton * * * * *||
 [Fd][Fd] [Gd]>[Fd] [Gd]2 [GB]2 | [FA][Fd][Ec][DB] [CA]4 | [FA][FA] [GB]>[FA] [Fd]2 [FA]2 | %5
w: |||
 [DF]>[DF] [DF][CE] [B,D][CE] [DF]2 | [Fd][Fd] [Gd]>[Fd] [Gd]2 [=FB]2 | [FA][Fd] [Gc]>[Ge] [Fd]4 | %8
w: |||
 [FA][FA] [FA]>[FA] [GB]2 [FA]2 | A4 z4 | [Fd][Fd] [Gc]>[GA] [GB]2 A2 | A2- [EA-][FA] [GA]2 z2 | %12
w: ||||
 [FA][FA] [GB]>[FA] [Fd]2 [FA]2 | [DF][DF] [DF]>[CE] [B,D][CE] [DF]2 | %14
w: ||
 [Fd][Fd] [Gd]>[Fd] [Gd]2 [=FB]2 | [FA][EA] [GA]>[GA] [FA]4- | [FA]4 z4 |] %17
w: |||
V:2
 x8 | x8 | x8 | x8 | x8 | x8 | x8 | x8 | x8 | F2 FF [Fd]2 z2 | x8 | G2 z2 z4 | x8 | x8 | x8 | x8 | %16
 x8 |] %17
V:3
 DD D>D A,2 D2 | A,>A, A,A, F,A, A,2 | A,[K:treble]D D>D B,2 D2 | D[K:bass]A,A,^G, A,4 | %4
 D[K:treble]D D>D A,2 D2 | A,>A, A,A, F,A, A,2 | A,[K:treble]D D>D B,2 D2 | D[K:bass]A, A,>A, A,4 | %8
 D[K:treble]D D>D D2 D2 | D2 DD A,2 z2 | DD E>C D2 D2 | C2 CD E2 z2 | DD D>D A,2[K:bass] A,2 | %13
 A,A, A,>A, F,A, A,2 | A,[K:treble]D D>D B,2 D2 | DC E>E D4- | D4 z4 |] %17
V:4
 D,D, D,>D, D,2 D,2 | D,>D, D,A,, B,,A,, D,2 | D,=C B,>A, G,2 G,2 | D,D,E,E, A,,4 | %4
 D,D, D,>D, D,2 D,2 | D,>D, D,A,, B,,A,, D,2 | D,=C B,>A, G,2 ^G,2 | .A,2 A,,>A,, D,4 | %8
 D,D, D,>D, D,2 D,2 | D,2 D,D, D,2 z2 | B,B, A,>A, G,2 F,2 | E,2 A,A, A,2 z2 | D,D, D,>D, D,2 D,2 | %13
 D,D, D,>A,, B,,A,, D,2 | D,=C B,>A, G,2 ^G,2 | A,A, A,,>A,, D,4- | D,4 z4 |] %17

